X:12
T:House of Achluncart, The
R:reel
C:William Marshall
S:1822 Collection p46
B:Athole,Kerrs
Z:Paul Stewart Cranford (P.S.C.), <http://www.cranfordpub.com>
M:C|
L:1/8
Q:333
K:C
B|c2 c2 ecge|c2 c2 dBGB|c2 c2 ecgc|Bddc BGG:|
||B|c2 Gc EcGc|EcGc dDDB|c2 Gc EcGc|fedc BGGB|
c2 Gc EcGc|EcGc dDDf|afge fedc|Bcde dBG|]

